X:1932
T:Bourrée tournante des grandes poteries
M:3/8
L:1/8
K:C
e/f/|:geg|g/e/ce/f/|geg|g2 d/e/|\
fdd|d2c/d/|ecc|1 c2e/f/:|2 cBA||
|:G2A|G2A|Gcd|e2e|\
dcd|cBA|1 GAG|e2c:|2 Ged|c3||


